X: 42381
T: Wellerman, The
R: polka
M: 2/4
K: Eminor
BE E/E/G BB B>B|cA A/A/c eB B2|EE/E/ EG BB B>B|BAGF E4|
e2 e>c dB B>B|cA A/A/c eB B2|e2 ec/c/ d/d/B B>B|BAGF E4:|

